X:1
T: Bunch Of Rushes
M: 4/4
L: 1/8
K: Dmix
de|:"D" f2efgf ef | "Am"d2dcA3B | "C"cBcd edc2 | "D"dedcA2de |
"D" f2efgf ef | "Am"d2dcA3B | "C"cBcd edc2 |1"D"E2D2D2de:|2 "D"E2D2 D2GA ||
|:"G"B2AB "C"c2Bc | "D"A2AG FGAB | "C"cBcd edc2 | "G"dedc"A"A2de |
"D" f2efgf ef | "Am"d2dcA3B | "C"cBcd edc2 | "D"E2D2 D2z2 :|
